client/src/styles/tutorial-admin.svg

<svg xmlns="http://www.w3.org/2000/svg" xml:space="preserve" style="fill-rule:evenodd;clip-rule:evenodd;stroke-linejoin:round;stroke-miterlimit:2" viewBox="0 0 500 500"><path d="M0 0h500v500H0z" style="fill:none"/><path d="m3428.68 286.28.25-50.596c0-.795 1.44-1.434 1.44-1.434l112.06-43.384 112.06 44.052-113.09 36.067-109.59-34.848-.24 49.708c2.23.504 7.66 2.293 8.07 7.81.52 6.956-2.83 7.987-2.83 7.987s3.86 9.274 5.66 21.897c1.45 10.089 2.84 28.338 2.84 28.338h-28.6s-.51-5.925.78-22.413c1.28-16.487 7.47-28.853 7.47-28.853s-2.58-.257-3.35-6.44c-.55-4.408 4.26-6.851 7.07-7.891m46.51-29.722 67.24 21.383 66.47-20.867.77 29.883c-33.14 1.907-52.92 11.228-67.5 23.444-13.9-12.995-35.04-21.699-67.49-23.701z" style="fill:#566b8d" transform="matrix(1.89047 0 0 2.11473 -6433.83 -323.83)"/></svg>

<?xml version="1.0" encoding="UTF-8" standalone="no"?>
<!DOCTYPE svg PUBLIC "-//W3C//DTD SVG 1.1//EN" "http://www.w3.org/Graphics/SVG/1.1/DTD/svg11.dtd">
<svg width="100%" height="100%" viewBox="0 0 500 500" version="1.1" xmlns="http://www.w3.org/2000/svg" xmlns:xlink="http://www.w3.org/1999/xlink" xml:space="preserve" xmlns:serif="http://www.serif.com/" style="fill-rule:evenodd;clip-rule:evenodd;stroke-linejoin:round;stroke-miterlimit:2;">
    <g transform="matrix(1,0,0,1,-2214.85,-2396.31)">
        <g id="tutorial-admin" transform="matrix(1,0,0,1,2214.85,2396.31)">
            <rect x="0" y="0" width="500" height="500" style="fill:none;"/>
            <g transform="matrix(1.89047,0,0,2.11473,-6433.83,-323.83)">
                <path d="M3428.68,286.28L3428.93,235.684C3428.93,234.889 3430.37,234.25 3430.37,234.25L3542.43,190.866L3654.49,234.918L3541.4,270.985L3431.81,236.137L3431.57,285.845C3433.8,286.349 3439.23,288.138 3439.64,293.655C3440.16,300.611 3436.81,301.642 3436.81,301.642C3436.81,301.642 3440.67,310.916 3442.47,323.539C3443.92,333.628 3445.31,351.877 3445.31,351.877L3416.71,351.877C3416.71,351.877 3416.2,345.952 3417.49,329.464C3418.77,312.977 3424.96,300.611 3424.96,300.611C3424.96,300.611 3422.38,300.354 3421.61,294.171C3421.06,289.763 3425.87,287.32 3428.68,286.28ZM3475.19,256.558L3542.43,277.941L3608.9,257.074L3609.67,286.957C3576.53,288.864 3556.75,298.185 3542.17,310.401C3528.27,297.406 3507.13,288.702 3474.68,286.7L3475.19,256.558Z" style="fill:rgb(86,107,141);"/>
            </g>
        </g>
    </g>
</svg>
